T: Enchanted Lady, The
M: 4/4
L: 1/8
K: Dmaj
A3G FAdB|AGFD EA A2|A3G FAdB|1 ABde fddB:|2 ABde fdde||
f2df efdf|afdf edBd|f2df efdA|B/c/dAG FDDe|
f2df efdf|afdf edB2|A3B dfbf|afeg fddB||
